X:116
T: Es flog ein kleins Waldvoegelein
N: A0134
O: Europa, Mitteleuropa, Deutschland
N: Memminger Tabulaturbuch (Hs. Anfang des 17. Jh.)
R: Romanze, Ballade, Lied
M: 4/4
L: 1/8
K: F
F2 | F2c2A2F2 | E3FG2
C2 | D2F2F2E2 | F4z2
F2 | F2c2A2F2 | E3FG2
C2 | D2F2F2E2 | F4z2
A2 | F2c2cBA2 | G4G2
B2 | A2G2A2F2 | G4z2
c2 | B2A2G2F2 | E3FG2
C2 | D2F2F2E2 | F4z2

@@@ Tune index: 116
